!!!!SEGMENT: pl-wtm--r-1461--031_stefani-jozef--wszechstronne-cwiczenia-glosowe-dumka.krn
!!!cenid: 18xx:2208
!!!COM: Stefani, Józef
!!!COM-rismID: pe30024097
!!!CDT: 1800/04/16-1876/03/19
!!!CNT: Polish
!!!GTL: Wszechstronne ćwiczenia głosowe
!!!OTL: Dumka
!!!PDT:
!!!AGN: Secular
!!!SMS-siglum: PL-Wtm
!!!SMS-shelfmark: R 1461
!!!SMS-shelfwork: 031 G
!!!SMS-variant:
!!!SMS-altvar:
!!!NIFC-rismSourceID: 1001120710
!!!NIFC-rismChildID: 1001120710
!!!NIFC-islandoraID: pl-wtm:25869
!!!URL-pdf-islandora: https://repozytorium.nifc.pl/islandora/object/pl-wtm%3A25869/datastream/PDF/view
!!!URL-scan: https://polish.musicsources.pl/pl/lokalizacje/galeria/rekopisy/6276/28 @EN{Scan on Polish Music Sources Website} @PL{Skany w portalu Dziedzictwo Muzyki Polskiej w otwartym dostępie}
!!!ONB-nifc: UWAGA: skan 0028, s. 52 – 53
!!!AIN: 1 forte 1 tenor
!!!key:
**kern	**kern	**dynam	**kern	**text	**dynam
*part2	*part2	*part2	*part1	*part1	*part1
*staff3	*staff2	*	*staff1	*staff1	*
*Iforte	*Iforte	*	*Itenor	*	*
*I"[Fortepian]	*I"[Fortepian]	*	*I"[Sopran\Tenor]	*	*
*clefF4	*clefG2	*	*clefG2	*	*
*k[b-e-a-]	*k[b-e-a-]	*	*k[b-e-a-]	*	*
*c:	*c:	*	*c:	*	*
*M2/4	*M2/4	*	*M2/4	*	*
=1	=1	=1	=1	=1	=1
*all\right	*all\right	*	*all\right	*	*
!	!	!LO:DY:rj	!	!	!
8.AA-\ 8.A-	8.cc\ 8.ccc	f	2r	.	.
16AA-\ 16A-	16c/ 16cc	.	.	.	.
[>4AA-\ [>4A-	[4c/ [4cc	.	.	.	.
=2	=2	=2	=2	=2	=2
8AA-\] 8A-]	8c/] 8cc]	.	2r	.	.
!	!	!LO:HP:a	!	!	!
8AA-\L 8A-	8c/L 8d	<	.	.	.
8AA-\ 8A-	8c/ 8e-	.	.	.	.
8AA-\J 8A-	8c/J 8f	[[	.	.	.
=3	=3	=3	=3	=3	=3
*2\right	*	*	*	*	*
!	!	!LO:HP:a	!	!	!
[<2GG\ [>2G	[>2Bn/ [>2d [>2g	>	2r	.	.
=4	=4	=4	=4	=4	=4
4GG\] 4G]	4B/] 4d] 4g]	.	4r	.	.
!	!	!	!	!	!LO:HP:b
4r	4r	]	(8.g\L	.	<
.	.	p	[16ee-\Jk)	.	[[
=5	=5	=5	=5	=5	=5
!	!	!	!	!	!LO:DY:b
8CC/ 8C	8r	.	8ee-\]	.	p
8r	8G</ 8c 8e-	.	(8ee-\L	.	.
8EE-/ 8E-	8r	.	8.dd\)	.	.
8r	8G</ 8c 8g	.	.	.	.
.	.	.	16cc\Jk	.	.
!!LO:LB:g=original
=6	=6	=6	=6	=6	=6
8GG\ 8G	8r	.	4.bn/	.	.
8r	8G</ 8Bn 8g	.	.	.	.
4FF\ 4F	8r	.	.	.	.
.	8G</ 8B 8g	.	8g/	.	.
=7	=7	=7	=7	=7	=7
4EE-\ 4E-	8r	.	(8.cc\L	.	.
.	(>8G</L 8c 8g	.	.	.	.
!	!	!	!	!	!LO:HP:b
.	.	.	32dd\LL	.	<
.	.	.	32cc\JJJ	.	.
8DD\L 8D	8G</ 8Bn 8f	.	8bn\L	.	.
8CC\J 8C	8G</J) 8c 8e-	.	8cc\J)	.	[[
=8	=8	=8	=8	=8	=8
!	!	!	!	!	!LO:HP:b
8BBBn/ 8BBn	8r	.	(4dd\	.	>
8r	8G</ 8d	.	.	.	.
8BBB/ 8BB	8r	.	4g/)	.	]]
8r	8G</ 8d	.	.	.	.
=9	=9	=9	=9	=9	=9
!	!	!LO:DY:rj	!	!	!LO:DY:a:rj
8BBB-X\ 8BB-X	8r	f	8.b-X\L	.	f
8r	8F</ 8A-X< 8B-X 8d	.	.	.	.
.	.	.	16b-\Jk	.	.
.	.	.	(>8qdd/	.	.
8BBB-\ 8BB-	8r	.	8.cc\L)	.	.
8r	8F</ 8A-< 8B- 8d	.	.	.	.
.	.	.	16b-\Jk	.	.
=10	=10	=10	=10	=10	=10
8EE-\ 8E-	8r	.	4gg\	.	.
8r	8G</ 8B- 8e-	.	.	.	.
8EE-\ 8E-	8r	.	4ee-\	.	.
8r	8G</ 8B- 8e-	.	.	.	.
!!LO:LB:g=original
=11	=11	=11	=11	=11	=11
!	!	!	!	!	!LO:HP:b
8AAA-\ 8AA-	8A-</ 8c 8f	.	(8cc\L	.	>
8r;>	8r;>	.	16ff\Jk)	.	]
.	.	.	16r;	.	.
!	!	!LO:DY:rj	!	!	!LO:DY:b:rj
8BBB-\L 8BB-	8G</L 8B-<	p	(8b-\L	.	p
8BBB-\J 8BB-	8A-</J 8B-< 8d	.	8dd\J)	.	.
=12	=12	=12	=12	=12	=12
*	*	*	*2\right	*	*
2EE-\ 2E-	2G</ 2B-< 2e-	.	2ee-\	.	.
=13	=13	=13	=13	=13	=13
!	!	!LO:DY:rj	!	!	!LO:DY:a
8BBBn\ 8BBn	8r	f	8g/	.	f
8r	8G</ 8d 8f	.	8g/	.	.
.	.	.	(8qb-/	.	.
4FF\ 4F	8r	.	8.a-/L)	.	.
.	8G</ 8Bn 8d	.	.	.	.
.	.	.	16g/Jk	.	.
!!LO:PB:g=original
=14	=14	=14	=14	=14	=14
4EE-\ 4E-	8r	.	4gg\	.	.
.	8G</ 8c	.	.	.	.
4CC\ 4C	8r	.	4ee-\	.	.
.	8G</ 8c 8e-	.	.	.	.
=15	=15	=15	=15	=15	=15
8FFF\ 8FF	8F</ 8A-< 8d-X	.	(8dd-X\L	.	.
8r	8r	.	8aa-\J	.	.
4GGG\ 4GG	4F</ 4G< 4Bn	.	8.gg\L)	.	.
!	!	!	!LO:SIC:v:s=16bn\Jk	!	!
.	.	.	16dd-\Jk	.	.
=16	=16	=16	=16	=16	=16
!	!	!	!LO:SIC:v:s=2cc\	!	!
2CC\ 2C	2E-</ 2G< 2c	.	2ee-\	.	.
=17	=17	=17	=17	=17	=17
!	!	!LO:DY:rj	!	!	!LO:DY:a
8FFF\ 8FF	8r	p	8dd\	.	p
8r	8F</ 8A-< 8d	.	(8dd\L	.	.
.	.	.	8qff/	.	.
8FFF\ 8FF	8r	.	8.ee-\	.	.
8r	8F</ 8A-< 8d	.	.	.	.
.	.	.	16dd\Jk)	.	.
=18	=18	=18	=18	=18	=18
8GGG\ 8GG	8r	.	4cc\	.	.
8r	8G</ 8c 8e-	.	.	.	.
8GG\ 8G	8r	.	4g/	.	.
8r	8c/ 8e- 8g	.	.	.	.
!!LO:LB:g=original
=19	=19	=19	=19	=19	=19
((2AA-\ 2A-	8r	.	8f/	.	.
!	!	!	!	!	!LO:HP:b
.	8c/L 8f	<	(8f/L	.	<
.	8c/ 8e-	.	8e-/	.	.
.	8c/J 8f	[[	8f/J	.	.
=20	=20	=20	=20	=20	=20
!	!	!LO:DY:a	!	!	!
8GG\L)) 8G	4.Bn/ 4.d 4.g	f	4g/)	.	[
8FF'\ 8F	.	.	.	.	.
!	!	!	!	!	!LO:HP:b
8EE-'\ 8E-	.	.	(8.g/L	.	<
8DD'\J 8D	8r	p	.	.	.
.	.	.	16ee-/Jk)	.	[[
=21	=21	=21	=21	=21	=21
8CC\ 8C	8r	.	8ee-\	.	.
!	!	!	!	!	!LO:DY:b:rj
8r	8G</ 8c 8e-	.	8ee-\L	.	p
8EE-\ 8E-	8r	.	8.dd\	.	.
8r	8G</ 8c 8g	.	.	.	.
.	.	.	16cc\Jk	.	.
=22	=22	=22	=22	=22	=22
8GG\ 8G	8r	.	4.bn/	.	.
8r	8G</ 8Bn 8d 8g	.	.	.	.
4FF\ 4F	8r	.	.	.	.
.	8G</ 8B 8g	.	8g/	.	.
=23	=23	=23	=23	=23	=23
8EE-\ 8E-	8r	.	8cc\	.	.
!	!	!	!	!	!LO:HP:b
8EE-\L 8E-	8G</L 8c 8g	.	(16cc\LL	.	<
.	.	.	32dd\L	.	.
.	.	.	32cc\JJJ	.	.
8DD\ 8D	8G</ 8Bn 8f	.	8bn\L	.	.
8CC\J 8C	8G</J 8c 8e-	.	8cc\J)	.	[[
!!LO:LB:g=original
=24	=24	=24	=24	=24	=24
!	!	!	!	!	!LO:HP:b
8BBBn\ 8BBn	8r	.	4dd\	.	>
8r	8G</ 8d	.	.	.	.
8BBB\ 8BB	8r	.	4g/	.	]]
8r	8G</ 8d	.	.	.	.
=25	=25	=25	=25	=25	=25
!	!	!LO:DY:rj	!	!	!LO:DY:a:rj
8BBB-X\ 8BB-X	8r	f	8b-X\L	.	f
8r	8F</ 8A-X< 8B-X 8d	.	8b-\J	.	.
.	.	.	(<8qdd/	.	.
8BBB-\ 8BB-	8r	.	8.cc\L)	.	.
8r	8F</ 8A-< 8B- 8d	.	.	.	.
.	.	.	16b-\Jk	.	.
=26	=26	=26	=26	=26	=26
8EE-\ 8E-	8r	.	4gg\	.	.
8r	8G</ 8B- 8e-	.	.	.	.
8EE-\ 8E-	8r	.	4ee-\	.	.
8r	8G</ 8B- 8e-	.	.	.	.
=27	=27	=27	=27	=27	=27
!	!	!	!	!	!LO:HP:b
8AAA-\ 8AA-	8A-</ 8c 8f	.	(8cc\L	.	>
8r;>	8r;>	.	16ff\Jk)	.	]
.	.	.	16r;>	.	.
!	!	!LO:DY:rj	!	!	!LO:DY:b
8BBB-\L 8BB-	8G</L 8B-<	p	(8b-\L	.	p
8BBB-\J 8BB-	8F</J 8A-< 8B-< 8d	.	8dd\J)	.	.
=28	=28	=28	=28	=28	=28
2EE-\ 2E-	2G</ 2B-< 2e-	.	2ee-\	.	.
=29	=29	=29	=29	=29	=29
!	!	!LO:DY:rj	!	!	!LO:DY:a:rj
4.FFF\ 4.FF	4.A-</ 4.d-X< 4.f	f	(4a-/	la	f
.	.	.	8aa-\)	.	.
8r	8r	.	8r	.	.
!!LO:LB:g=original
=30	=30	=30	=30	=30	=30
4.GGG\ 4.GG	4.G</ 4.c 4.e-	.	(4g/	sol	.
.	.	.	8gg\)	.	.
8r	8r	p	8r	.	.
=31	=31	=31	=31	=31	=31
8GGG\ 8GG	8G</ 8Bn 8f	.	8dd\	re	.
8r	8r	.	8g/	sol	.
.	.	.	(<8qff/	.	.
8GGG\ 8GG	8G</ 8B 8f	.	8.ee-;>\)	mi	.
8r;>	8r;>	.	.	.	.
.	.	.	16dd\	re	.
=32	=32	=32	=32	=32	=32
4.CC\ 4.C	4.G</ 4.c 4.e-	.	4.cc\	do.	.
8r	8r	f	8r	.	.
=33	=33	=33	=33	=33	=33
4.F\ 4.A- 4.d-X	(4a-/	.	2r	.	.
.	8aa-\)	.	.	.	.
8r	8r	.	.	.	.
=34	=34	=34	=34	=34	=34
4.G\ 4.c 4.e-	(4g/	.	2r	.	.
.	8gg\)	.	.	.	.
8r	8r	.	.	.	.
=35	=35	=35	=35	=35	=35
4r	4r	.	2r	.	.
4GG/ 4G	4dd\ 4ff 4gg 4bbn	.	.	.	.
=36	=36	=36	=36	=36	=36
4CC/ 4C	4ee-\ 4gg 4ccc	.	2r;>	.	.
4r;>	4r;>	.	.	.	.
!!LO:PB:g=original
==	==	==	==	==	==
*-	*-	*-	*-	*-	*-
!!!system-decoration: s1{(s2,s3)}
!!!RDF**kern: < = below
!!!RDF**kern: > = above
!!!ENC: Marta Chmielewska
!!!END: 2021-06-07
!!!ENC: Andrzej Gręziak
!!!END: 2021-05-19
!!!YEC: Copyright 2022 Narodowy Instytut Fryderyka Chopina (https://polishscores.org)
!!!YEM: License CC-BY-4.0 (https://creativecommons.org/licenses/by/4.0)
